logos/vlang.svg

<?xml version="1.0" encoding="UTF-8"?>
<svg width="256px" height="253px" viewBox="0 0 256 253" version="1.1" xmlns="http://www.w3.org/2000/svg" xmlns:xlink="http://www.w3.org/1999/xlink" preserveAspectRatio="xMidYMid">
    <defs>
        <path d="M5.61432398,0.0389442794 L73.7920769,6.60662726 C78.116627,7.02374614 82.7932517,10.6912893 84.229,14.7920632 L128.08,140.083 L171.717746,14.7956436 C173.115277,10.7822657 177.616593,7.18348712 181.860243,6.6384126 L182.142734,6.60662726 L250.320487,0.0389442794 C254.645634,-0.378174602 256.962762,2.60312144 255.493,6.6919606 L255.493,6.6919606 L168.797317,247.774739 L168.383779,248.922264 C167.913688,250.229894 166.778988,251.379668 165.453944,252.038819 C164.971264,252.410543 164.31756,252.626208 163.535294,252.626208 L96.7550979,252.626208 C96.672339,252.626208 96.5902977,252.624999 96.5089864,252.6226 L96.7550979,252.626208 C96.6334967,252.626208 96.5116006,252.623608 96.3894891,252.618464 C96.3461191,252.616271 96.3038749,252.614059 96.2618369,252.611522 C92.0591399,252.375041 87.6334866,249.153122 86.2185198,245.21832 L0.441811163,6.6919606 C-1.02795107,2.60312144 1.28917713,-0.378174602 5.61432398,0.0389442794 Z" id="path-1"></path>
        <polygon id="path-3" points="158.907005 248.922264 122.811005 144.647914 127.967406 141.42494 164.708478 247.774739"></polygon>
        <filter x="-40.2%" y="-14.9%" width="181.4%" height="132.2%" filterUnits="objectBoundingBox" id="filter-4">
            <feMorphology radius="2" operator="dilate" in="SourceAlpha" result="shadowSpreadOuter1"></feMorphology>
            <feOffset dx="0" dy="2" in="shadowSpreadOuter1" result="shadowOffsetOuter1"></feOffset>
            <feGaussianBlur stdDeviation="3" in="shadowOffsetOuter1" result="shadowBlurOuter1"></feGaussianBlur>
            <feColorMatrix values="0 0 0 0 0   0 0 0 0 0   0 0 0 0 0  0 0 0 0.3 0" type="matrix" in="shadowBlurOuter1"></feColorMatrix>
        </filter>
    </defs>
		<g>
				<mask id="mask-2" fill="white">
						<use xlink:href="#path-1"></use>
				</mask>
				<path d="M168.797317,247.774739 L255.493,6.6919606 C256.962762,2.60312144 254.645634,-0.378174602 250.320487,0.0389442794 L182.142734,6.60662726 C177.818184,7.02374614 173.146333,10.6930795 171.717746,14.7956436 L91.4727855,245.19266 C90.0430046,249.295224 92.4102587,252.626208 96.7550979,252.626208 L163.115788,252.626208 C165.287909,252.626208 167.648599,250.96728 168.383779,248.922264 L168.797317,247.774739 Z" fill="#536B8A" mask="url(#mask-2)"></path>
				<g mask="url(#mask-2)" fill="black" fill-opacity="1">
						<use filter="url(#filter-4)" xlink:href="#path-3"></use>
				</g>
				<path d="M5.61432398,0.0389442794 L73.7920769,6.60662726 C78.116627,7.02374614 82.7932517,10.6912893 84.229,14.7920632 L166.171676,248.911522 C166.888953,250.962506 165.708012,252.626208 163.535294,252.626208 L96.7550979,252.626208 C92.4102587,252.626208 87.6888788,249.307159 86.2185198,245.21832 L0.441811163,6.6919606 C-1.02795107,2.60312144 1.28917713,-0.378174602 5.61432398,0.0389442794 Z" fill="#5D87BF" mask="url(#mask-2)"></path>
		</g>
</svg>

<svg width="256" height="253" xmlns="http://www.w3.org/2000/svg" xmlns:xlink="http://www.w3.org/1999/xlink" preserveAspectRatio="xMidYMid">
	<defs>
		<path d="m5.614.039 68.178 6.568c4.325.417 9.001 4.084 10.437 8.185l43.851 125.291 43.638-125.287c1.397-4.014 5.899-7.613 10.142-8.158l.283-.031L250.32.039c4.326-.417 6.643 2.564 5.173 6.653l-86.696 241.083-.413 1.147c-.47 1.308-1.605 2.458-2.93 3.117-.483.372-1.136.587-1.919.587h-66.78c-.083 0-.165-.001-.246-.003l.246.003a8.687 8.687 0 0 1-.493-.014c-4.203-.237-8.629-3.459-10.043-7.394L.442 6.692c-1.47-4.089.847-7.07 5.172-6.653Z" id="a"/>
		<path id="d" d="m158.907 248.922-36.096-104.274 5.156-3.223 36.741 106.35z"/>
		<filter x="-40.2%" y="-14.9%" width="181.4%" height="132.2%" filterUnits="objectBoundingBox" id="c">
			<feMorphology radius="2" operator="dilate" in="SourceAlpha" result="shadowSpreadOuter1"/>
			<feOffset dy="2" in="shadowSpreadOuter1" result="shadowOffsetOuter1"/>
			<feGaussianBlur stdDeviation="3" in="shadowOffsetOuter1" result="shadowBlurOuter1"/>
			<feColorMatrix values="0 0 0 0 0 0 0 0 0 0 0 0 0 0 0 0 0 0 0.3 0" in="shadowBlurOuter1"/>
		</filter>
	</defs>
	<mask id="b" fill="#fff">
		<use xlink:href="#a"/>
	</mask>
	<path d="M168.797 247.775 255.493 6.692c1.47-4.089-.847-7.07-5.173-6.653l-68.177 6.568c-4.325.417-8.997 4.086-10.425 8.189L91.473 245.193c-1.43 4.102.937 7.433 5.282 7.433h66.36c2.173 0 4.534-1.659 5.269-3.704l.413-1.147Z" fill="#536B8A" mask="url(#b)"/>
	<g mask="url(#b)">
		<use filter="url(#c)" xlink:href="#d"/>
	</g>
	<path d="m5.614.039 68.178 6.568c4.325.417 9.001 4.084 10.437 8.185l81.943 234.12c.717 2.05-.464 3.714-2.637 3.714h-66.78c-4.345 0-9.066-3.319-10.536-7.408L.442 6.692c-1.47-4.089.847-7.07 5.172-6.653Z" fill="#5D87BF" mask="url(#b)"/>
</svg>
